X: 100385
T: MARMOT'S REEL
R: reel
B: K\"ohler's Violin Repository, v.3, 1885 p.253 #3
F: http://www.archive.org/details/klersviolinrepos03rugg
Z: 2012 John Chambers <jc:trillian.mit.edu>
M: C|
L: 1/8
K: Bb
|: vB2BB (dB)BB | (ec)fd (gf)ff | (ba)gf (ga)bg | fedc B2b2 :|
|: (vaf)ff (bf)ff | (af)ff (bf)ff | g2gg (g3f) | fedc B2b2 :|
|: vF2FB (AG)AB | cdec Bdf2 | F2FB (AG)AB | (cd)ec B2b2 "^Fine.":|

% newpage
%%sep 2 1 500

